(G-CODE GENERATED BY FLATCAM v8.994 - www.flatcam.org - Version Date: 2020/11/7)

(Name: tc2030-Edge_Cuts.gbr_cutout_cnc)
(Type: G-code from Geometry)
(Units: MM)

(Created on Sunday, 17 December 2023 at 14:15)

(This preprocessor is the default preprocessor used by FlatCAM.)
(It is made to work with MACH3 compatible motion controllers.)

(TOOL DIAMETER: 2.0 mm)
(Feedrate_XY: 120.0 mm/min)
(Feedrate_Z: 60.0 mm/min)
(Feedrate rapids 1500.0 mm/min)

(Z_Cut: -1.8 mm)
(Z_Move: 2.0 mm)
(Z Start: None mm)
(Z End: 15.0 mm)
(X,Y End: None mm)
(Steps per circle: 64)
(Preprocessor Geometry: default)

(X range:    1.1718 ...   12.3110  mm)
(Y range:    1.1922 ...   12.7378  mm)

(Spindle Speed: 0.0 RPM)
G21
G90
G94

G01 F120.00

M5
G00 Z15.0000
G00 X0.0000 Y0.0000
T1
M6    
(MSG, Change to Tool Dia = 2.0000)
M0
G00 Z15.0000

M03
G01 F120.00
G00 X4.8414 Y1.1922
G01 F60.00
G01 Z-1.8000
G01 F120.00
G01 X2.2718 Y1.1922
G01 X2.1640 Y1.1975
G01 X2.0572 Y1.2133
G01 X1.9525 Y1.2395
G01 X1.8508 Y1.2759
G01 X1.7532 Y1.3221
G01 X1.6606 Y1.3776
G01 X1.5739 Y1.4419
G01 X1.4940 Y1.5144
G01 X1.4215 Y1.5943
G01 X1.3572 Y1.6810
G01 X1.3017 Y1.7736
G01 X1.2555 Y1.8712
G01 X1.2191 Y1.9729
G01 X1.1929 Y2.0776
G01 X1.1771 Y2.1844
G01 X1.1718 Y2.2922
G01 X1.1718 Y5.0650
G00 Z2.0000
G00 X1.1718 Y9.0650
G01 F60.00
G01 Z-1.8000
G01 F120.00
G01 X1.1718 Y11.6378
G01 X1.1771 Y11.7456
G01 X1.1929 Y11.8524
G01 X1.2191 Y11.9571
G01 X1.2555 Y12.0588
G01 X1.3017 Y12.1564
G01 X1.3572 Y12.2490
G01 X1.4215 Y12.3357
G01 X1.4940 Y12.4156
G01 X1.5739 Y12.4881
G01 X1.6606 Y12.5524
G01 X1.7532 Y12.6079
G01 X1.8508 Y12.6541
G01 X1.9525 Y12.6905
G01 X2.0572 Y12.7167
G01 X2.1640 Y12.7325
G01 X2.2718 Y12.7378
G01 X4.8414 Y12.7378
G00 Z2.0000
G00 X8.8414 Y12.7378
G01 F60.00
G01 Z-1.8000
G01 F120.00
G01 X11.2110 Y12.7378
G01 X11.3188 Y12.7325
G01 X11.4256 Y12.7167
G01 X11.5303 Y12.6905
G01 X11.6320 Y12.6541
G01 X11.7296 Y12.6079
G01 X11.8222 Y12.5524
G01 X11.9089 Y12.4881
G01 X11.9888 Y12.4156
G01 X12.0613 Y12.3357
G01 X12.1256 Y12.2490
G01 X12.1811 Y12.1564
G01 X12.2273 Y12.0588
G01 X12.2637 Y11.9571
G01 X12.2899 Y11.8524
G01 X12.3057 Y11.7456
G01 X12.3110 Y11.6378
G01 X12.3110 Y9.0650
G00 Z2.0000
G00 X12.3110 Y5.0650
G01 F60.00
G01 Z-1.8000
G01 F120.00
G01 X12.3110 Y2.2922
G01 X12.3057 Y2.1844
G01 X12.2899 Y2.0776
G01 X12.2637 Y1.9729
G01 X12.2273 Y1.8712
G01 X12.1811 Y1.7736
G01 X12.1256 Y1.6810
G01 X12.0613 Y1.5943
G01 X11.9888 Y1.5144
G01 X11.9089 Y1.4419
G01 X11.8222 Y1.3776
G01 X11.7296 Y1.3221
G01 X11.6320 Y1.2759
G01 X11.5303 Y1.2395
G01 X11.4256 Y1.2133
G01 X11.3188 Y1.1975
G01 X11.2110 Y1.1922
G01 X8.8414 Y1.1922
G00 Z2.0000
M05
G00 Z2.0000
G00 Z15.00


