(G-CODE GENERATED BY FLATCAM v8.994 - www.flatcam.org - Version Date: 2020/11/7)

(Name: tc2030.drl_cnc)
(Type: G-code from Geometry)
(Units: MM)

(Created on Sunday, 17 December 2023 at 12:49)

(This preprocessor is the default preprocessor used by FlatCAM.)
(It is made to work with MACH3 compatible motion controllers.)


(TOOLS DIAMETER: )
(Tool: 1 -> Dia: 0.5)
(Tool: 2 -> Dia: 1.0)
(Tool: 3 -> Dia: 2.4)

(FEEDRATE Z: )
(Tool: 1 -> Feedrate: 300)
(Tool: 2 -> Feedrate: 300)
(Tool: 3 -> Feedrate: 300)

(FEEDRATE RAPIDS: )
(Tool: 1 -> Feedrate Rapids: 1500)
(Tool: 2 -> Feedrate Rapids: 1500)
(Tool: 3 -> Feedrate Rapids: 1500)

(Z_CUT: )
(Tool: 1 -> Z_Cut: -2.0)
(Tool: 2 -> Z_Cut: -2.0)
(Tool: 3 -> Z_Cut: -2.0)

(Tools Offset: )
(Tool: 1 -> Offset Z: 0.0)
(Tool: 2 -> Offset Z: 0.0)
(Tool: 3 -> Offset Z: 0.0)

(Z_MOVE: )
(Tool: 1 -> Z_Move: 2)
(Tool: 2 -> Z_Move: 2)
(Tool: 3 -> Z_Move: 2)

(Z Toolchange: 15 mm)
(X,Y Toolchange: 0.0000, 0.0000 mm)
(Z Start: None mm)
(Z End: 0.5 mm)
(X,Y End: None mm)
(Steps per circle: 64)
(Preprocessor Excellon: default)

(X range:    3.3320 ...   10.1120  mm)
(Y range:    3.2000 ...   10.6800  mm)

(Spindle Speed: 0 RPM)
G21
G90
G94

G01 F300.00

M5
G00 Z15.0000
T1
G00 X0.0000 Y0.0000                
M6
(MSG, Change to Tool Dia = 0.5000 ||| Total drills for tool T1 = 6)
M0
G00 Z15.0000

G01 F300.00
M03
G00 X5.8020 Y7.5750
G01 Z-2.0000
G01 Z0
G00 Z2.0000
G00 X7.0720 Y6.3050
G01 Z-2.0000
G01 Z0
G00 Z2.0000
G00 X8.3420 Y6.3050
G01 Z-2.0000
G01 Z0
G00 Z2.0000
G00 X8.3420 Y7.5750
G01 Z-2.0000
G01 Z0
G00 Z2.0000
G00 X7.0720 Y7.5750
G01 Z-2.0000
G01 Z0
G00 Z2.0000
G00 X5.8020 Y6.3050
G01 Z-2.0000
G01 Z0
G00 Z2.0000
G01 F300.00

M5
G00 Z15.0000
T2
G00 X0.0000 Y0.0000                
M6
(MSG, Change to Tool Dia = 1.0000 ||| Total drills for tool T2 = 3)
M0
G00 Z15.0000

G01 F300.00
M03
G00 X4.5320 Y6.9400
G01 Z-2.0000
G01 Z0
G00 Z2.0000
G00 X9.6120 Y5.9240
G01 Z-2.0000
G01 Z0
G00 Z2.0000
G00 X9.6120 Y7.9560
G01 Z-2.0000
G01 Z0
G00 Z2.0000
G01 F300.00

M5
G00 Z15.0000
T3
G00 X0.0000 Y0.0000                
M6
(MSG, Change to Tool Dia = 2.4000 ||| Total drills for tool T3 = 4)
M0
G00 Z15.0000

G01 F300.00
M03
G00 X4.5320 Y9.4800
G01 Z-2.0000
G01 Z0
G00 Z2.0000
G00 X7.7070 Y9.4800
G01 Z-2.0000
G01 Z0
G00 Z2.0000
G00 X7.7070 Y4.4000
G01 Z-2.0000
G01 Z0
G00 Z2.0000
G00 X4.5320 Y4.4000
G01 Z-2.0000
G01 Z0
G00 Z2.0000
M05
G00 Z0.50


