(G-CODE GENERATED BY FLATCAM v8.994 - www.flatcam.org - Version Date: 2020/11/7)

(Name: tc2030-F_Cu.gbr_iso_combined_cnc)
(Type: G-code from Geometry)
(Units: MM)

(Created on Sunday, 17 December 2023 at 17:59)

(This preprocessor is the default preprocessor used by FlatCAM.)
(It is made to work with MACH3 compatible motion controllers.)

(TOOL DIAMETER: 0.13 mm)
(Feedrate_XY: 120.0 mm/min)
(Feedrate_Z: 60.0 mm/min)
(Feedrate rapids 1500.0 mm/min)

(Z_Cut: -0.056 mm)
(Z_Move: 2.0 mm)
(Z Start: None mm)
(Z End: 15.0 mm)
(X,Y End: None mm)
(Steps per circle: 64)
(Preprocessor Geometry: default)

(X range:    5.1748 ...    8.9684  mm)
(Y range:    5.6778 ...    8.2014  mm)

(Spindle Speed: 0.0 RPM)
G21
G90
G94

G01 F120.00

M5
G00 Z15.0000
G00 X0.0000 Y0.0000
T1
M6    
(MSG, Change to Tool Dia = 0.1300)
M0
G00 Z15.0000

M03
G01 F120.00
G00 X6.4283 Y6.3084
G01 F60.00
G01 Z-0.0560
G01 F120.00
G01 X6.4254 Y6.3660
G01 X6.4164 Y6.4269
G01 X6.4014 Y6.4866
G01 X6.3807 Y6.5445
G01 X6.3544 Y6.6001
G01 X6.3228 Y6.6528
G01 X6.2861 Y6.7022
G01 X6.2448 Y6.7478
G01 X6.1992 Y6.7891
G01 X6.1498 Y6.8258
G01 X6.0971 Y6.8574
G01 X6.0415 Y6.8837
G01 X5.9836 Y6.9044
G01 X5.9239 Y6.9194
G01 X5.8630 Y6.9284
G01 X5.8016 Y6.9314
G01 X5.7402 Y6.9284
G01 X5.6793 Y6.9194
G01 X5.6196 Y6.9044
G01 X5.5617 Y6.8837
G01 X5.5061 Y6.8574
G01 X5.4534 Y6.8258
G01 X5.4040 Y6.7891
G01 X5.3584 Y6.7478
G01 X5.3171 Y6.7022
G01 X5.2804 Y6.6528
G01 X5.2488 Y6.6001
G01 X5.2225 Y6.5445
G01 X5.2018 Y6.4866
G01 X5.1868 Y6.4269
G01 X5.1778 Y6.3660
G01 X5.1748 Y6.3046
G01 X5.1778 Y6.2432
G01 X5.1868 Y6.1823
G01 X5.2018 Y6.1226
G01 X5.2225 Y6.0647
G01 X5.2488 Y6.0091
G01 X5.2804 Y5.9564
G01 X5.3171 Y5.9070
G01 X5.3584 Y5.8614
G01 X5.4040 Y5.8201
G01 X5.4534 Y5.7834
G01 X5.5061 Y5.7518
G01 X5.5617 Y5.7255
G01 X5.6196 Y5.7048
G01 X5.6793 Y5.6898
G01 X5.7402 Y5.6808
G01 X5.8016 Y5.6778
G01 X5.8630 Y5.6808
G01 X5.9239 Y5.6898
G01 X5.9836 Y5.7048
G01 X6.0415 Y5.7255
G01 X6.0971 Y5.7518
G01 X6.1498 Y5.7834
G01 X6.1992 Y5.8201
G01 X6.2448 Y5.8614
G01 X6.2861 Y5.9070
G01 X6.3228 Y5.9564
G01 X6.3544 Y6.0091
G01 X6.3807 Y6.0647
G01 X6.4014 Y6.1226
G01 X6.4164 Y6.1823
G01 X6.4254 Y6.2432
G01 X6.4283 Y6.3008
G01 X6.4283 Y6.3084
G00 Z2.0000
G00 X7.6983 Y6.3084
G01 F60.00
G01 Z-0.0560
G01 F120.00
G01 X7.6954 Y6.3660
G01 X7.6864 Y6.4269
G01 X7.6714 Y6.4866
G01 X7.6507 Y6.5445
G01 X7.6244 Y6.6001
G01 X7.5928 Y6.6528
G01 X7.5561 Y6.7022
G01 X7.5148 Y6.7478
G01 X7.4692 Y6.7891
G01 X7.4198 Y6.8258
G01 X7.3671 Y6.8574
G01 X7.3115 Y6.8837
G01 X7.2536 Y6.9044
G01 X7.1939 Y6.9194
G01 X7.1330 Y6.9284
G01 X7.0716 Y6.9314
G01 X7.0102 Y6.9284
G01 X6.9493 Y6.9194
G01 X6.8896 Y6.9044
G01 X6.8317 Y6.8837
G01 X6.7761 Y6.8574
G01 X6.7234 Y6.8258
G01 X6.6740 Y6.7891
G01 X6.6284 Y6.7478
G01 X6.5871 Y6.7022
G01 X6.5504 Y6.6528
G01 X6.5188 Y6.6001
G01 X6.4925 Y6.5445
G01 X6.4718 Y6.4866
G01 X6.4568 Y6.4269
G01 X6.4478 Y6.3660
G01 X6.4448 Y6.3046
G01 X6.4478 Y6.2432
G01 X6.4568 Y6.1823
G01 X6.4718 Y6.1226
G01 X6.4925 Y6.0647
G01 X6.5188 Y6.0091
G01 X6.5504 Y5.9564
G01 X6.5871 Y5.9070
G01 X6.6284 Y5.8614
G01 X6.6740 Y5.8201
G01 X6.7234 Y5.7834
G01 X6.7761 Y5.7518
G01 X6.8317 Y5.7255
G01 X6.8896 Y5.7048
G01 X6.9493 Y5.6898
G01 X7.0102 Y5.6808
G01 X7.0716 Y5.6778
G01 X7.1330 Y5.6808
G01 X7.1939 Y5.6898
G01 X7.2536 Y5.7048
G01 X7.3115 Y5.7255
G01 X7.3671 Y5.7518
G01 X7.4198 Y5.7834
G01 X7.4692 Y5.8201
G01 X7.5148 Y5.8614
G01 X7.5561 Y5.9070
G01 X7.5928 Y5.9564
G01 X7.6244 Y6.0091
G01 X7.6507 Y6.0647
G01 X7.6714 Y6.1226
G01 X7.6864 Y6.1823
G01 X7.6954 Y6.2432
G01 X7.6983 Y6.3008
G01 X7.6983 Y6.3084
G00 Z2.0000
G00 X8.9683 Y6.3084
G01 F60.00
G01 Z-0.0560
G01 F120.00
G01 X8.9654 Y6.3660
G01 X8.9564 Y6.4269
G01 X8.9414 Y6.4866
G01 X8.9207 Y6.5445
G01 X8.8944 Y6.6001
G01 X8.8628 Y6.6528
G01 X8.8261 Y6.7022
G01 X8.7848 Y6.7478
G01 X8.7392 Y6.7891
G01 X8.6898 Y6.8258
G01 X8.6371 Y6.8574
G01 X8.5815 Y6.8837
G01 X8.5236 Y6.9044
G01 X8.4639 Y6.9194
G01 X8.4030 Y6.9284
G01 X8.3416 Y6.9314
G01 X8.2802 Y6.9284
G01 X8.2193 Y6.9194
G01 X8.1596 Y6.9044
G01 X8.1017 Y6.8837
G01 X8.0461 Y6.8574
G01 X7.9934 Y6.8258
G01 X7.9440 Y6.7891
G01 X7.8984 Y6.7478
G01 X7.8571 Y6.7022
G01 X7.8204 Y6.6528
G01 X7.7888 Y6.6001
G01 X7.7625 Y6.5445
G01 X7.7418 Y6.4866
G01 X7.7268 Y6.4269
G01 X7.7178 Y6.3660
G01 X7.7148 Y6.3046
G01 X7.7178 Y6.2432
G01 X7.7268 Y6.1823
G01 X7.7418 Y6.1226
G01 X7.7625 Y6.0647
G01 X7.7888 Y6.0091
G01 X7.8204 Y5.9564
G01 X7.8571 Y5.9070
G01 X7.8984 Y5.8614
G01 X7.9440 Y5.8201
G01 X7.9934 Y5.7834
G01 X8.0461 Y5.7518
G01 X8.1017 Y5.7255
G01 X8.1596 Y5.7048
G01 X8.2193 Y5.6898
G01 X8.2802 Y5.6808
G01 X8.3416 Y5.6778
G01 X8.4030 Y5.6808
G01 X8.4639 Y5.6898
G01 X8.5236 Y5.7048
G01 X8.5815 Y5.7255
G01 X8.6371 Y5.7518
G01 X8.6898 Y5.7834
G01 X8.7392 Y5.8201
G01 X8.7848 Y5.8614
G01 X8.8261 Y5.9070
G01 X8.8628 Y5.9564
G01 X8.8944 Y6.0091
G01 X8.9207 Y6.0647
G01 X8.9414 Y6.1226
G01 X8.9564 Y6.1823
G01 X8.9654 Y6.2432
G01 X8.9683 Y6.3008
G01 X8.9683 Y6.3084
G00 Z2.0000
G00 X8.9683 Y7.5784
G01 F60.00
G01 Z-0.0560
G01 F120.00
G01 X8.9654 Y7.6360
G01 X8.9564 Y7.6969
G01 X8.9414 Y7.7566
G01 X8.9207 Y7.8145
G01 X8.8944 Y7.8701
G01 X8.8628 Y7.9228
G01 X8.8261 Y7.9722
G01 X8.7848 Y8.0178
G01 X8.7392 Y8.0591
G01 X8.6898 Y8.0958
G01 X8.6371 Y8.1274
G01 X8.5815 Y8.1537
G01 X8.5236 Y8.1744
G01 X8.4639 Y8.1894
G01 X8.4030 Y8.1984
G01 X8.3416 Y8.2014
G01 X8.2802 Y8.1984
G01 X8.2193 Y8.1894
G01 X8.1596 Y8.1744
G01 X8.1017 Y8.1537
G01 X8.0461 Y8.1274
G01 X7.9934 Y8.0958
G01 X7.9440 Y8.0591
G01 X7.8984 Y8.0178
G01 X7.8571 Y7.9722
G01 X7.8204 Y7.9228
G01 X7.7888 Y7.8701
G01 X7.7625 Y7.8145
G01 X7.7418 Y7.7566
G01 X7.7268 Y7.6969
G01 X7.7178 Y7.6360
G01 X7.7148 Y7.5746
G01 X7.7178 Y7.5132
G01 X7.7268 Y7.4523
G01 X7.7418 Y7.3926
G01 X7.7625 Y7.3347
G01 X7.7888 Y7.2791
G01 X7.8204 Y7.2264
G01 X7.8571 Y7.1770
G01 X7.8984 Y7.1314
G01 X7.9440 Y7.0901
G01 X7.9934 Y7.0534
G01 X8.0461 Y7.0218
G01 X8.1017 Y6.9955
G01 X8.1596 Y6.9748
G01 X8.2193 Y6.9598
G01 X8.2802 Y6.9508
G01 X8.3416 Y6.9478
G01 X8.4030 Y6.9508
G01 X8.4639 Y6.9598
G01 X8.5236 Y6.9748
G01 X8.5815 Y6.9955
G01 X8.6371 Y7.0218
G01 X8.6898 Y7.0534
G01 X8.7392 Y7.0901
G01 X8.7848 Y7.1314
G01 X8.8261 Y7.1770
G01 X8.8628 Y7.2264
G01 X8.8944 Y7.2791
G01 X8.9207 Y7.3347
G01 X8.9414 Y7.3926
G01 X8.9564 Y7.4523
G01 X8.9654 Y7.5132
G01 X8.9683 Y7.5708
G01 X8.9683 Y7.5784
G00 Z2.0000
G00 X7.6983 Y7.5784
G01 F60.00
G01 Z-0.0560
G01 F120.00
G01 X7.6954 Y7.6360
G01 X7.6864 Y7.6969
G01 X7.6714 Y7.7566
G01 X7.6507 Y7.8145
G01 X7.6244 Y7.8701
G01 X7.5928 Y7.9228
G01 X7.5561 Y7.9722
G01 X7.5148 Y8.0178
G01 X7.4692 Y8.0591
G01 X7.4198 Y8.0958
G01 X7.3671 Y8.1274
G01 X7.3115 Y8.1537
G01 X7.2536 Y8.1744
G01 X7.1939 Y8.1894
G01 X7.1330 Y8.1984
G01 X7.0716 Y8.2014
G01 X7.0102 Y8.1984
G01 X6.9493 Y8.1894
G01 X6.8896 Y8.1744
G01 X6.8317 Y8.1537
G01 X6.7761 Y8.1274
G01 X6.7234 Y8.0958
G01 X6.6740 Y8.0591
G01 X6.6284 Y8.0178
G01 X6.5871 Y7.9722
G01 X6.5504 Y7.9228
G01 X6.5188 Y7.8701
G01 X6.4925 Y7.8145
G01 X6.4718 Y7.7566
G01 X6.4568 Y7.6969
G01 X6.4478 Y7.6360
G01 X6.4448 Y7.5746
G01 X6.4478 Y7.5132
G01 X6.4568 Y7.4523
G01 X6.4718 Y7.3926
G01 X6.4925 Y7.3347
G01 X6.5188 Y7.2791
G01 X6.5504 Y7.2264
G01 X6.5871 Y7.1770
G01 X6.6284 Y7.1314
G01 X6.6740 Y7.0901
G01 X6.7234 Y7.0534
G01 X6.7761 Y7.0218
G01 X6.8317 Y6.9955
G01 X6.8896 Y6.9748
G01 X6.9493 Y6.9598
G01 X7.0102 Y6.9508
G01 X7.0716 Y6.9478
G01 X7.1330 Y6.9508
G01 X7.1939 Y6.9598
G01 X7.2536 Y6.9748
G01 X7.3115 Y6.9955
G01 X7.3671 Y7.0218
G01 X7.4198 Y7.0534
G01 X7.4692 Y7.0901
G01 X7.5148 Y7.1314
G01 X7.5561 Y7.1770
G01 X7.5928 Y7.2264
G01 X7.6244 Y7.2791
G01 X7.6507 Y7.3347
G01 X7.6714 Y7.3926
G01 X7.6864 Y7.4523
G01 X7.6954 Y7.5132
G01 X7.6983 Y7.5708
G01 X7.6983 Y7.5784
G00 Z2.0000
G00 X6.4283 Y7.5784
G01 F60.00
G01 Z-0.0560
G01 F120.00
G01 X6.4254 Y7.6360
G01 X6.4164 Y7.6969
G01 X6.4014 Y7.7566
G01 X6.3807 Y7.8145
G01 X6.3544 Y7.8701
G01 X6.3228 Y7.9228
G01 X6.2861 Y7.9722
G01 X6.2448 Y8.0178
G01 X6.1992 Y8.0591
G01 X6.1498 Y8.0958
G01 X6.0971 Y8.1274
G01 X6.0415 Y8.1537
G01 X5.9836 Y8.1744
G01 X5.9239 Y8.1894
G01 X5.8630 Y8.1984
G01 X5.8016 Y8.2014
G01 X5.7402 Y8.1984
G01 X5.6793 Y8.1894
G01 X5.6196 Y8.1744
G01 X5.5617 Y8.1537
G01 X5.5061 Y8.1274
G01 X5.4534 Y8.0958
G01 X5.4040 Y8.0591
G01 X5.3584 Y8.0178
G01 X5.3171 Y7.9722
G01 X5.2804 Y7.9228
G01 X5.2488 Y7.8701
G01 X5.2225 Y7.8145
G01 X5.2018 Y7.7566
G01 X5.1868 Y7.6969
G01 X5.1778 Y7.6360
G01 X5.1748 Y7.5746
G01 X5.1778 Y7.5132
G01 X5.1868 Y7.4523
G01 X5.2018 Y7.3926
G01 X5.2225 Y7.3347
G01 X5.2488 Y7.2791
G01 X5.2804 Y7.2264
G01 X5.3171 Y7.1770
G01 X5.3584 Y7.1314
G01 X5.4040 Y7.0901
G01 X5.4534 Y7.0534
G01 X5.5061 Y7.0218
G01 X5.5617 Y6.9955
G01 X5.6196 Y6.9748
G01 X5.6793 Y6.9598
G01 X5.7402 Y6.9508
G01 X5.8016 Y6.9478
G01 X5.8630 Y6.9508
G01 X5.9239 Y6.9598
G01 X5.9836 Y6.9748
G01 X6.0415 Y6.9955
G01 X6.0971 Y7.0218
G01 X6.1498 Y7.0534
G01 X6.1992 Y7.0901
G01 X6.2448 Y7.1314
G01 X6.2861 Y7.1770
G01 X6.3228 Y7.2264
G01 X6.3544 Y7.2791
G01 X6.3807 Y7.3347
G01 X6.4014 Y7.3926
G01 X6.4164 Y7.4523
G01 X6.4254 Y7.5132
G01 X6.4283 Y7.5708
G01 X6.4283 Y7.5784
G00 Z2.0000
M05
G00 Z2.0000
G00 Z15.00


