(G-CODE GENERATED BY FLATCAM v8.994 - www.flatcam.org - Version Date: 2020/11/7)

(Name: tc2030-F_Cu.gbr_iso_combined_cnc)
(Type: G-code from Geometry)
(Units: MM)

(Created on Sunday, 17 December 2023 at 12:47)

(This preprocessor is the default preprocessor used by FlatCAM.)
(It is made to work with MACH3 compatible motion controllers.)

(TOOL DIAMETER: 0.1536 mm)
(Feedrate_XY: 120.0 mm/min)
(Feedrate_Z: 60.0 mm/min)
(Feedrate rapids 1500.0 mm/min)

(Z_Cut: -0.1 mm)
(Z_Move: 2.0 mm)
(Z Start: None mm)
(Z End: 15.0 mm)
(X,Y End: None mm)
(Steps per circle: 64)
(Preprocessor Geometry: default)

(X range:    5.0673 ...    9.0759  mm)
(Y range:    5.5703 ...    8.3089  mm)

(Spindle Speed: 0.0 RPM)
G21
G90
G94

G01 F120.00

M5
G00 Z15.0000
G00 X0.0000 Y0.0000
T1
M6    
(MSG, Change to Tool Dia = 0.1536)
M0
G00 Z15.0000

M03
G01 F120.00
G00 X6.4500 Y5.9000
G01 F60.00
G01 Z-0.1000
G01 F120.00
G01 X6.4500 Y7.9500
G00 Z2.0000
G00 X6.4283 Y7.5784
G01 F60.00
G01 Z-0.1000
G01 F120.00
G01 X6.4254 Y7.6360
G01 X6.4164 Y7.6969
G01 X6.4014 Y7.7566
G01 X6.3807 Y7.8145
G01 X6.3544 Y7.8701
G01 X6.3228 Y7.9228
G01 X6.2861 Y7.9722
G01 X6.2448 Y8.0178
G01 X6.1992 Y8.0591
G01 X6.1498 Y8.0958
G01 X6.0971 Y8.1274
G01 X6.0415 Y8.1537
G01 X5.9836 Y8.1744
G01 X5.9239 Y8.1894
G01 X5.8630 Y8.1984
G01 X5.8016 Y8.2014
G01 X5.7402 Y8.1984
G01 X5.6793 Y8.1894
G01 X5.6196 Y8.1744
G01 X5.5617 Y8.1537
G01 X5.5061 Y8.1274
G01 X5.4534 Y8.0958
G01 X5.4040 Y8.0591
G01 X5.3584 Y8.0178
G01 X5.3171 Y7.9722
G01 X5.2804 Y7.9228
G01 X5.2488 Y7.8701
G01 X5.2225 Y7.8145
G01 X5.2018 Y7.7566
G01 X5.1868 Y7.6969
G01 X5.1778 Y7.6360
G01 X5.1748 Y7.5746
G01 X5.1778 Y7.5132
G01 X5.1868 Y7.4523
G01 X5.2018 Y7.3926
G01 X5.2225 Y7.3347
G01 X5.2488 Y7.2791
G01 X5.2804 Y7.2264
G01 X5.3171 Y7.1770
G01 X5.3584 Y7.1314
G01 X5.4040 Y7.0901
G01 X5.4534 Y7.0534
G01 X5.5061 Y7.0218
G01 X5.5617 Y6.9955
G01 X5.6196 Y6.9748
G01 X5.6793 Y6.9598
G01 X5.7402 Y6.9508
G01 X5.8016 Y6.9478
G01 X5.8630 Y6.9508
G01 X5.9239 Y6.9598
G01 X5.9836 Y6.9748
G01 X6.0415 Y6.9955
G01 X6.0971 Y7.0218
G01 X6.1498 Y7.0534
G01 X6.1992 Y7.0901
G01 X6.2448 Y7.1314
G01 X6.2861 Y7.1770
G01 X6.3228 Y7.2264
G01 X6.3544 Y7.2791
G01 X6.3807 Y7.3347
G01 X6.4014 Y7.3926
G01 X6.4164 Y7.4523
G01 X6.4254 Y7.5132
G01 X6.4283 Y7.5708
G01 X6.4283 Y7.5784
G00 Z2.0000
G00 X6.1692 Y6.9396
G01 F60.00
G01 Z-0.1000
G01 F120.00
G01 X6.2096 Y6.9640
G01 X6.2639 Y7.0041
G01 X6.2743 Y7.0129
G01 X6.3208 Y7.0554
G01 X6.3633 Y7.1019
G01 X6.3721 Y7.1123
G01 X6.4122 Y7.1666
G01 X6.4366 Y7.2070
G01 X6.4610 Y7.1666
G01 X6.5011 Y7.1123
G01 X6.5099 Y7.1019
G01 X6.5524 Y7.0554
G01 X6.5989 Y7.0129
G01 X6.6093 Y7.0041
G01 X6.6636 Y6.9640
G01 X6.7040 Y6.9396
G01 X6.6636 Y6.9152
G01 X6.6093 Y6.8751
G01 X6.5989 Y6.8663
G01 X6.5524 Y6.8238
G01 X6.5099 Y6.7773
G01 X6.5011 Y6.7669
G01 X6.4610 Y6.7126
G01 X6.4366 Y6.6722
G01 X6.4122 Y6.7126
G01 X6.3721 Y6.7669
G01 X6.3633 Y6.7773
G01 X6.3208 Y6.8238
G01 X6.2743 Y6.8663
G01 X6.2639 Y6.8751
G01 X6.2096 Y6.9152
G01 X6.1692 Y6.9396
G00 Z2.0000
G00 X6.4283 Y6.3084
G01 F60.00
G01 Z-0.1000
G01 F120.00
G01 X6.4254 Y6.3660
G01 X6.4164 Y6.4269
G01 X6.4014 Y6.4866
G01 X6.3807 Y6.5445
G01 X6.3544 Y6.6001
G01 X6.3228 Y6.6528
G01 X6.2861 Y6.7022
G01 X6.2448 Y6.7478
G01 X6.1992 Y6.7891
G01 X6.1498 Y6.8258
G01 X6.0971 Y6.8574
G01 X6.0415 Y6.8837
G01 X5.9836 Y6.9044
G01 X5.9239 Y6.9194
G01 X5.8630 Y6.9284
G01 X5.8016 Y6.9314
G01 X5.7402 Y6.9284
G01 X5.6793 Y6.9194
G01 X5.6196 Y6.9044
G01 X5.5617 Y6.8837
G01 X5.5061 Y6.8574
G01 X5.4534 Y6.8258
G01 X5.4040 Y6.7891
G01 X5.3584 Y6.7478
G01 X5.3171 Y6.7022
G01 X5.2804 Y6.6528
G01 X5.2488 Y6.6001
G01 X5.2225 Y6.5445
G01 X5.2018 Y6.4866
G01 X5.1868 Y6.4269
G01 X5.1778 Y6.3660
G01 X5.1748 Y6.3046
G01 X5.1778 Y6.2432
G01 X5.1868 Y6.1823
G01 X5.2018 Y6.1226
G01 X5.2225 Y6.0647
G01 X5.2488 Y6.0091
G01 X5.2804 Y5.9564
G01 X5.3171 Y5.9070
G01 X5.3584 Y5.8614
G01 X5.4040 Y5.8201
G01 X5.4534 Y5.7834
G01 X5.5061 Y5.7518
G01 X5.5617 Y5.7255
G01 X5.6196 Y5.7048
G01 X5.6793 Y5.6898
G01 X5.7402 Y5.6808
G01 X5.8016 Y5.6778
G01 X5.8630 Y5.6808
G01 X5.9239 Y5.6898
G01 X5.9836 Y5.7048
G01 X6.0415 Y5.7255
G01 X6.0971 Y5.7518
G01 X6.1498 Y5.7834
G01 X6.1992 Y5.8201
G01 X6.2448 Y5.8614
G01 X6.2861 Y5.9070
G01 X6.3228 Y5.9564
G01 X6.3544 Y6.0091
G01 X6.3807 Y6.0647
G01 X6.4014 Y6.1226
G01 X6.4164 Y6.1823
G01 X6.4254 Y6.2432
G01 X6.4283 Y6.3008
G01 X6.4283 Y6.3084
G00 Z2.0000
G00 X7.4392 Y6.9396
G01 F60.00
G01 Z-0.1000
G01 F120.00
G01 X7.4796 Y6.9640
G01 X7.5339 Y7.0041
G01 X7.5443 Y7.0129
G01 X7.5908 Y7.0554
G01 X7.6333 Y7.1019
G01 X7.6421 Y7.1123
G01 X7.6822 Y7.1666
G01 X7.7066 Y7.2070
G01 X7.7310 Y7.1666
G01 X7.7711 Y7.1123
G01 X7.7799 Y7.1019
G01 X7.8224 Y7.0554
G01 X7.8689 Y7.0129
G01 X7.8793 Y7.0041
G01 X7.9336 Y6.9640
G01 X7.9740 Y6.9396
G01 X7.9336 Y6.9152
G01 X7.8793 Y6.8751
G01 X7.8689 Y6.8663
G01 X7.8224 Y6.8238
G01 X7.7799 Y6.7773
G01 X7.7711 Y6.7669
G01 X7.7310 Y6.7126
G01 X7.7066 Y6.6722
G01 X7.6822 Y6.7126
G01 X7.6421 Y6.7669
G01 X7.6333 Y6.7773
G01 X7.5908 Y6.8238
G01 X7.5443 Y6.8663
G01 X7.5339 Y6.8751
G01 X7.4796 Y6.9152
G01 X7.4392 Y6.9396
G00 Z2.0000
G00 X7.6983 Y6.3084
G01 F60.00
G01 Z-0.1000
G01 F120.00
G01 X7.6954 Y6.3660
G01 X7.6864 Y6.4269
G01 X7.6714 Y6.4866
G01 X7.6507 Y6.5445
G01 X7.6244 Y6.6001
G01 X7.5928 Y6.6528
G01 X7.5561 Y6.7022
G01 X7.5148 Y6.7478
G01 X7.4692 Y6.7891
G01 X7.4198 Y6.8258
G01 X7.3671 Y6.8574
G01 X7.3115 Y6.8837
G01 X7.2536 Y6.9044
G01 X7.1939 Y6.9194
G01 X7.1330 Y6.9284
G01 X7.0716 Y6.9314
G01 X7.0102 Y6.9284
G01 X6.9493 Y6.9194
G01 X6.8896 Y6.9044
G01 X6.8317 Y6.8837
G01 X6.7761 Y6.8574
G01 X6.7234 Y6.8258
G01 X6.6740 Y6.7891
G01 X6.6284 Y6.7478
G01 X6.5871 Y6.7022
G01 X6.5504 Y6.6528
G01 X6.5188 Y6.6001
G01 X6.4925 Y6.5445
G01 X6.4718 Y6.4866
G01 X6.4568 Y6.4269
G01 X6.4478 Y6.3660
G01 X6.4448 Y6.3046
G01 X6.4478 Y6.2432
G01 X6.4568 Y6.1823
G01 X6.4718 Y6.1226
G01 X6.4925 Y6.0647
G01 X6.5188 Y6.0091
G01 X6.5504 Y5.9564
G01 X6.5871 Y5.9070
G01 X6.6284 Y5.8614
G01 X6.6740 Y5.8201
G01 X6.7234 Y5.7834
G01 X6.7761 Y5.7518
G01 X6.8317 Y5.7255
G01 X6.8896 Y5.7048
G01 X6.9493 Y5.6898
G01 X7.0102 Y5.6808
G01 X7.0716 Y5.6778
G01 X7.1330 Y5.6808
G01 X7.1939 Y5.6898
G01 X7.2536 Y5.7048
G01 X7.3115 Y5.7255
G01 X7.3671 Y5.7518
G01 X7.4198 Y5.7834
G01 X7.4692 Y5.8201
G01 X7.5148 Y5.8614
G01 X7.5561 Y5.9070
G01 X7.5928 Y5.9564
G01 X7.6244 Y6.0091
G01 X7.6507 Y6.0647
G01 X7.6714 Y6.1226
G01 X7.6864 Y6.1823
G01 X7.6954 Y6.2432
G01 X7.6983 Y6.3008
G01 X7.6983 Y6.3084
G00 Z2.0000
G00 X7.7000 Y5.9000
G01 F60.00
G01 Z-0.1000
G01 F120.00
G01 X7.7000 Y7.9500
G00 Z2.0000
G00 X7.6983 Y7.5784
G01 F60.00
G01 Z-0.1000
G01 F120.00
G01 X7.6954 Y7.6360
G01 X7.6864 Y7.6969
G01 X7.6714 Y7.7566
G01 X7.6507 Y7.8145
G01 X7.6244 Y7.8701
G01 X7.5928 Y7.9228
G01 X7.5561 Y7.9722
G01 X7.5148 Y8.0178
G01 X7.4692 Y8.0591
G01 X7.4198 Y8.0958
G01 X7.3671 Y8.1274
G01 X7.3115 Y8.1537
G01 X7.2536 Y8.1744
G01 X7.1939 Y8.1894
G01 X7.1330 Y8.1984
G01 X7.0716 Y8.2014
G01 X7.0102 Y8.1984
G01 X6.9493 Y8.1894
G01 X6.8896 Y8.1744
G01 X6.8317 Y8.1537
G01 X6.7761 Y8.1274
G01 X6.7234 Y8.0958
G01 X6.6740 Y8.0591
G01 X6.6284 Y8.0178
G01 X6.5871 Y7.9722
G01 X6.5504 Y7.9228
G01 X6.5188 Y7.8701
G01 X6.4925 Y7.8145
G01 X6.4718 Y7.7566
G01 X6.4568 Y7.6969
G01 X6.4478 Y7.6360
G01 X6.4448 Y7.5746
G01 X6.4478 Y7.5132
G01 X6.4568 Y7.4523
G01 X6.4718 Y7.3926
G01 X6.4925 Y7.3347
G01 X6.5188 Y7.2791
G01 X6.5504 Y7.2264
G01 X6.5871 Y7.1770
G01 X6.6284 Y7.1314
G01 X6.6740 Y7.0901
G01 X6.7234 Y7.0534
G01 X6.7761 Y7.0218
G01 X6.8317 Y6.9955
G01 X6.8896 Y6.9748
G01 X6.9493 Y6.9598
G01 X7.0102 Y6.9508
G01 X7.0716 Y6.9478
G01 X7.1330 Y6.9508
G01 X7.1939 Y6.9598
G01 X7.2536 Y6.9748
G01 X7.3115 Y6.9955
G01 X7.3671 Y7.0218
G01 X7.4198 Y7.0534
G01 X7.4692 Y7.0901
G01 X7.5148 Y7.1314
G01 X7.5561 Y7.1770
G01 X7.5928 Y7.2264
G01 X7.6244 Y7.2791
G01 X7.6507 Y7.3347
G01 X7.6714 Y7.3926
G01 X7.6864 Y7.4523
G01 X7.6954 Y7.5132
G01 X7.6983 Y7.5708
G01 X7.6983 Y7.5784
G00 Z2.0000
G00 X8.8000 Y6.9500
G01 F60.00
G01 Z-0.1000
G01 F120.00
G01 X5.4000 Y6.9500
G00 Z2.0000
G00 X8.9683 Y7.5784
G01 F60.00
G01 Z-0.1000
G01 F120.00
G01 X8.9654 Y7.6360
G01 X8.9564 Y7.6969
G01 X8.9414 Y7.7566
G01 X8.9207 Y7.8145
G01 X8.8944 Y7.8701
G01 X8.8628 Y7.9228
G01 X8.8261 Y7.9722
G01 X8.7848 Y8.0178
G01 X8.7392 Y8.0591
G01 X8.6898 Y8.0958
G01 X8.6371 Y8.1274
G01 X8.5815 Y8.1537
G01 X8.5236 Y8.1744
G01 X8.4639 Y8.1894
G01 X8.4030 Y8.1984
G01 X8.3416 Y8.2014
G01 X8.2802 Y8.1984
G01 X8.2193 Y8.1894
G01 X8.1596 Y8.1744
G01 X8.1017 Y8.1537
G01 X8.0461 Y8.1274
G01 X7.9934 Y8.0958
G01 X7.9440 Y8.0591
G01 X7.8984 Y8.0178
G01 X7.8571 Y7.9722
G01 X7.8204 Y7.9228
G01 X7.7888 Y7.8701
G01 X7.7625 Y7.8145
G01 X7.7418 Y7.7566
G01 X7.7268 Y7.6969
G01 X7.7178 Y7.6360
G01 X7.7148 Y7.5746
G01 X7.7178 Y7.5132
G01 X7.7268 Y7.4523
G01 X7.7418 Y7.3926
G01 X7.7625 Y7.3347
G01 X7.7888 Y7.2791
G01 X7.8204 Y7.2264
G01 X7.8571 Y7.1770
G01 X7.8984 Y7.1314
G01 X7.9440 Y7.0901
G01 X7.9934 Y7.0534
G01 X8.0461 Y7.0218
G01 X8.1017 Y6.9955
G01 X8.1596 Y6.9748
G01 X8.2193 Y6.9598
G01 X8.2802 Y6.9508
G01 X8.3416 Y6.9478
G01 X8.4030 Y6.9508
G01 X8.4639 Y6.9598
G01 X8.5236 Y6.9748
G01 X8.5815 Y6.9955
G01 X8.6371 Y7.0218
G01 X8.6898 Y7.0534
G01 X8.7392 Y7.0901
G01 X8.7848 Y7.1314
G01 X8.8261 Y7.1770
G01 X8.8628 Y7.2264
G01 X8.8944 Y7.2791
G01 X8.9207 Y7.3347
G01 X8.9414 Y7.3926
G01 X8.9564 Y7.4523
G01 X8.9654 Y7.5132
G01 X8.9683 Y7.5708
G01 X8.9683 Y7.5784
G00 Z2.0000
G00 X9.0757 Y6.3136
G01 F60.00
G01 Z-0.1000
G01 F120.00
G01 X9.0724 Y6.3766
G01 X9.0634 Y6.4389
G01 X9.0598 Y6.4567
G01 X9.0456 Y6.5134
G01 X9.0415 Y6.5264
G01 X9.0200 Y6.5856
G01 X8.9933 Y6.6427
G01 X8.9848 Y6.6586
G01 X8.9522 Y6.7126
G01 X8.9148 Y6.7633
G01 X8.9033 Y6.7773
G01 X8.8608 Y6.8238
G01 X8.8143 Y6.8663
G01 X8.8039 Y6.8751
G01 X8.7496 Y6.9152
G01 X8.7092 Y6.9396
G01 X8.7496 Y6.9640
G01 X8.8074 Y7.0070
G01 X8.8608 Y7.0554
G01 X8.9063 Y7.1053
G01 X8.9148 Y7.1159
G01 X8.9470 Y7.1592
G01 X8.9570 Y7.1743
G01 X8.9892 Y7.2284
G01 X9.0182 Y7.2894
G01 X9.0233 Y7.3020
G01 X9.0415 Y7.3528
G01 X9.0467 Y7.3702
G01 X9.0618 Y7.4313
G01 X9.0724 Y7.5026
G01 X9.0759 Y7.5746
G01 X9.0730 Y7.6376
G01 X9.0713 Y7.6556
G01 X9.0634 Y7.7089
G01 X9.0609 Y7.7223
G01 X9.0467 Y7.7790
G01 X9.0415 Y7.7964
G01 X9.0200 Y7.8556
G01 X8.9933 Y7.9127
G01 X8.9848 Y7.9286
G01 X8.9522 Y7.9826
G01 X8.9092 Y8.0404
G01 X8.8671 Y8.0873
G01 X8.8543 Y8.1001
G01 X8.8074 Y8.1422
G01 X8.7570 Y8.1800
G01 X8.7419 Y8.1900
G01 X8.6878 Y8.2222
G01 X8.6309 Y8.2494
G01 X8.6184 Y8.2547
G01 X8.5548 Y8.2773
G01 X8.4849 Y8.2948
G01 X8.4136 Y8.3054
G01 X8.3506 Y8.3087
G01 X8.3326 Y8.3087
G01 X8.2741 Y8.3058
G01 X8.2606 Y8.3043
G01 X8.1983 Y8.2948
G01 X8.1372 Y8.2797
G01 X8.1241 Y8.2759
G01 X8.0606 Y8.2530
G01 X7.9954 Y8.2222
G01 X7.9336 Y8.1852
G01 X7.8793 Y8.1451
G01 X7.8689 Y8.1363
G01 X7.8224 Y8.0938
G01 X7.7769 Y8.0439
G01 X7.7684 Y8.0333
G01 X7.7336 Y7.9863
G01 X7.7262 Y7.9749
G01 X7.7066 Y7.9422
G01 X7.6822 Y7.9826
G01 X7.6421 Y8.0369
G01 X7.6333 Y8.0473
G01 X7.5971 Y8.0873
G01 X7.5876 Y8.0970
G01 X7.5374 Y8.1422
G01 X7.4870 Y8.1800
G01 X7.4719 Y8.1900
G01 X7.4256 Y8.2178
G01 X7.4137 Y8.2243
G01 X7.3526 Y8.2530
G01 X7.2934 Y8.2745
G01 X7.2760 Y8.2797
G01 X7.2149 Y8.2948
G01 X7.1436 Y8.3054
G01 X7.0806 Y8.3087
G01 X7.0626 Y8.3087
G01 X7.0041 Y8.3058
G01 X6.9906 Y8.3043
G01 X6.9328 Y8.2956
G01 X6.9195 Y8.2928
G01 X6.8584 Y8.2773
G01 X6.7990 Y8.2563
G01 X6.7823 Y8.2494
G01 X6.7254 Y8.2222
G01 X6.6636 Y8.1852
G01 X6.6058 Y8.1422
G01 X6.5589 Y8.1001
G01 X6.5492 Y8.0906
G01 X6.5099 Y8.0473
G01 X6.4984 Y8.0333
G01 X6.4610 Y7.9826
G01 X6.4366 Y7.9422
G01 X6.4122 Y7.9826
G01 X6.3721 Y8.0369
G01 X6.3633 Y8.0473
G01 X6.3271 Y8.0873
G01 X6.3176 Y8.0970
G01 X6.2674 Y8.1422
G01 X6.2170 Y8.1800
G01 X6.2019 Y8.1900
G01 X6.1556 Y8.2178
G01 X6.1437 Y8.2243
G01 X6.0826 Y8.2530
G01 X6.0234 Y8.2745
G01 X6.0060 Y8.2797
G01 X5.9449 Y8.2948
G01 X5.8736 Y8.3054
G01 X5.8106 Y8.3087
G01 X5.7926 Y8.3087
G01 X5.7386 Y8.3060
G01 X5.7251 Y8.3049
G01 X5.6583 Y8.2948
G01 X5.5972 Y8.2797
G01 X5.5798 Y8.2745
G01 X5.5206 Y8.2530
G01 X5.4635 Y8.2263
G01 X5.4476 Y8.2178
G01 X5.3936 Y8.1852
G01 X5.3429 Y8.1478
G01 X5.3289 Y8.1363
G01 X5.2824 Y8.0938
G01 X5.2399 Y8.0473
G01 X5.2284 Y8.0333
G01 X5.1910 Y7.9826
G01 X5.1584 Y7.9286
G01 X5.1499 Y7.9127
G01 X5.1268 Y7.8639
G01 X5.1215 Y7.8514
G01 X5.0989 Y7.7878
G01 X5.0814 Y7.7179
G01 X5.0708 Y7.6466
G01 X5.0675 Y7.5836
G01 X5.0675 Y7.5656
G01 X5.0704 Y7.5071
G01 X5.0719 Y7.4936
G01 X5.0814 Y7.4313
G01 X5.0965 Y7.3702
G01 X5.1003 Y7.3571
G01 X5.1232 Y7.2936
G01 X5.1540 Y7.2284
G01 X5.1910 Y7.1666
G01 X5.2311 Y7.1123
G01 X5.2399 Y7.1019
G01 X5.2824 Y7.0554
G01 X5.3323 Y7.0099
G01 X5.3429 Y7.0014
G01 X5.3899 Y6.9666
G01 X5.4013 Y6.9592
G01 X5.4340 Y6.9396
G01 X5.3936 Y6.9152
G01 X5.3358 Y6.8722
G01 X5.2824 Y6.8238
G01 X5.2369 Y6.7739
G01 X5.2284 Y6.7633
G01 X5.1962 Y6.7200
G01 X5.1862 Y6.7049
G01 X5.1540 Y6.6508
G01 X5.1250 Y6.5898
G01 X5.1199 Y6.5772
G01 X5.1017 Y6.5264
G01 X5.0965 Y6.5090
G01 X5.0814 Y6.4479
G01 X5.0708 Y6.3766
G01 X5.0675 Y6.3136
G01 X5.0675 Y6.2956
G01 X5.0708 Y6.2326
G01 X5.0806 Y6.1658
G01 X5.0834 Y6.1525
G01 X5.0989 Y6.0914
G01 X5.1199 Y6.0320
G01 X5.1268 Y6.0153
G01 X5.1540 Y5.9584
G01 X5.1862 Y5.9043
G01 X5.1962 Y5.8892
G01 X5.2340 Y5.8388
G01 X5.2761 Y5.7919
G01 X5.2889 Y5.7791
G01 X5.3358 Y5.7370
G01 X5.3862 Y5.6992
G01 X5.4013 Y5.6892
G01 X5.4554 Y5.6570
G01 X5.5123 Y5.6298
G01 X5.5248 Y5.6245
G01 X5.5884 Y5.6019
G01 X5.6583 Y5.5844
G01 X5.7296 Y5.5738
G01 X5.7926 Y5.5705
G01 X5.8106 Y5.5705
G01 X5.8691 Y5.5734
G01 X5.8826 Y5.5749
G01 X5.9449 Y5.5844
G01 X6.0060 Y5.5995
G01 X6.0191 Y5.6033
G01 X6.0826 Y5.6262
G01 X6.1478 Y5.6570
G01 X6.2096 Y5.6940
G01 X6.2639 Y5.7341
G01 X6.2743 Y5.7429
G01 X6.3208 Y5.7854
G01 X6.3663 Y5.8353
G01 X6.3748 Y5.8459
G01 X6.4096 Y5.8929
G01 X6.4170 Y5.9043
G01 X6.4366 Y5.9370
G01 X6.4610 Y5.8966
G01 X6.5011 Y5.8423
G01 X6.5099 Y5.8319
G01 X6.5461 Y5.7919
G01 X6.5556 Y5.7822
G01 X6.6058 Y5.7370
G01 X6.6562 Y5.6992
G01 X6.6713 Y5.6892
G01 X6.7176 Y5.6614
G01 X6.7295 Y5.6549
G01 X6.7906 Y5.6262
G01 X6.8498 Y5.6047
G01 X6.8672 Y5.5995
G01 X6.9283 Y5.5844
G01 X6.9996 Y5.5738
G01 X7.0626 Y5.5705
G01 X7.0806 Y5.5705
G01 X7.1391 Y5.5734
G01 X7.1526 Y5.5749
G01 X7.2104 Y5.5836
G01 X7.2237 Y5.5864
G01 X7.2848 Y5.6019
G01 X7.3442 Y5.6229
G01 X7.3609 Y5.6298
G01 X7.4178 Y5.6570
G01 X7.4796 Y5.6940
G01 X7.5374 Y5.7370
G01 X7.5843 Y5.7791
G01 X7.5940 Y5.7886
G01 X7.6333 Y5.8319
G01 X7.6448 Y5.8459
G01 X7.6822 Y5.8966
G01 X7.7066 Y5.9370
G01 X7.7310 Y5.8966
G01 X7.7740 Y5.8388
G01 X7.8224 Y5.7854
G01 X7.8723 Y5.7399
G01 X7.8829 Y5.7314
G01 X7.9262 Y5.6992
G01 X7.9413 Y5.6892
G01 X7.9954 Y5.6570
G01 X8.0564 Y5.6280
G01 X8.0690 Y5.6229
G01 X8.1198 Y5.6047
G01 X8.1372 Y5.5995
G01 X8.1983 Y5.5844
G01 X8.2696 Y5.5738
G01 X8.3416 Y5.5703
G01 X8.4046 Y5.5732
G01 X8.4226 Y5.5749
G01 X8.4849 Y5.5844
G01 X8.5548 Y5.6019
G01 X8.6142 Y5.6229
G01 X8.6309 Y5.6298
G01 X8.6837 Y5.6549
G01 X8.6956 Y5.6614
G01 X8.7496 Y5.6940
G01 X8.8074 Y5.7370
G01 X8.8608 Y5.7854
G01 X8.9092 Y5.8388
G01 X8.9522 Y5.8966
G01 X8.9892 Y5.9584
G01 X9.0200 Y6.0236
G01 X9.0415 Y6.0828
G01 X9.0456 Y6.0958
G01 X9.0598 Y6.1525
G01 X9.0634 Y6.1703
G01 X9.0713 Y6.2236
G01 X9.0728 Y6.2371
G01 X9.0757 Y6.2956
G01 X9.0757 Y6.3136
G00 Z2.0000
G00 X8.9683 Y6.3084
G01 F60.00
G01 Z-0.1000
G01 F120.00
G01 X8.9654 Y6.3660
G01 X8.9564 Y6.4269
G01 X8.9414 Y6.4866
G01 X8.9207 Y6.5445
G01 X8.8944 Y6.6001
G01 X8.8628 Y6.6528
G01 X8.8261 Y6.7022
G01 X8.7848 Y6.7478
G01 X8.7392 Y6.7891
G01 X8.6898 Y6.8258
G01 X8.6371 Y6.8574
G01 X8.5815 Y6.8837
G01 X8.5236 Y6.9044
G01 X8.4639 Y6.9194
G01 X8.4030 Y6.9284
G01 X8.3416 Y6.9314
G01 X8.2802 Y6.9284
G01 X8.2193 Y6.9194
G01 X8.1596 Y6.9044
G01 X8.1017 Y6.8837
G01 X8.0461 Y6.8574
G01 X7.9934 Y6.8258
G01 X7.9440 Y6.7891
G01 X7.8984 Y6.7478
G01 X7.8571 Y6.7022
G01 X7.8204 Y6.6528
G01 X7.7888 Y6.6001
G01 X7.7625 Y6.5445
G01 X7.7418 Y6.4866
G01 X7.7268 Y6.4269
G01 X7.7178 Y6.3660
G01 X7.7148 Y6.3046
G01 X7.7178 Y6.2432
G01 X7.7268 Y6.1823
G01 X7.7418 Y6.1226
G01 X7.7625 Y6.0647
G01 X7.7888 Y6.0091
G01 X7.8204 Y5.9564
G01 X7.8571 Y5.9070
G01 X7.8984 Y5.8614
G01 X7.9440 Y5.8201
G01 X7.9934 Y5.7834
G01 X8.0461 Y5.7518
G01 X8.1017 Y5.7255
G01 X8.1596 Y5.7048
G01 X8.2193 Y5.6898
G01 X8.2802 Y5.6808
G01 X8.3416 Y5.6778
G01 X8.4030 Y5.6808
G01 X8.4639 Y5.6898
G01 X8.5236 Y5.7048
G01 X8.5815 Y5.7255
G01 X8.6371 Y5.7518
G01 X8.6898 Y5.7834
G01 X8.7392 Y5.8201
G01 X8.7848 Y5.8614
G01 X8.8261 Y5.9070
G01 X8.8628 Y5.9564
G01 X8.8944 Y6.0091
G01 X8.9207 Y6.0647
G01 X8.9414 Y6.1226
G01 X8.9564 Y6.1823
G01 X8.9654 Y6.2432
G01 X8.9683 Y6.3008
G01 X8.9683 Y6.3084
G00 Z2.0000
M05
G00 Z2.0000
G00 Z15.00


